X: 1
T: Bridget O'Malley    [C]
T: Brigit O'Malley
M: 3/4
L: 1/8
Z: 2016 John Chambers <jc:trillian.mit.edu>
S: Printed copy from Darlene Wigton
K: C
[|\
"C"C3 D EF |  "Em"G2 E3 G | "F"A2 GE DE | "Am"CA, z2 AB |\
"F"c3 B AB | "Em"AG E3 D | "Am"E2 A3 G | "F"A4 AB |
"Dm"c2 cB AB | "C"AG E3 F | "F"GE D2 E2 | "Am"CA, z2 A,B, |\
"Dm"C2 A2 GA | "Em"E2 E3 D | "F"D2 C2 "G7"D2 | "C"C4 :|

